X:111
T:Soldier's Joy (2)
K:D
M:2/4
L:1/16
de | "D" fefg a2f2 | "G" edef g2e2 | "D" fefg a2f2 | "A" efec A2de |
"D" fefg a2f2 | "G" edef g2eg | "D" fafd "A" egec | "D" dBAF D4 ||
[df][df] | "D" [df]ADF AFDF | A2[df][df] [d2f2]cB | AFDF AFDF | "A" G2[AE][AE] [A2E2]FG |
"D" AFDF AFDF | A2[df][df] [d2f2]eg | fafd "A" egec | "D" dBAF D4 |]

